X:1
T: In The Bleak Midwinter
N:1 December 2001
C:
S:
A:
O:
R:
M:4/4
K:G
I:speed 175
%W: A
% voice 1 (1 lines, 24 notes)
K:G
M:4/4
L:1/16
B6 c2 d4 B4 |A8 G8 |A6 B2 A4 E4 |A12 z4 |B6 c2 d4 B4 |A8 G8 |A4 B4 A6 G2 |G12 z4 |
%W:
% voice 1 (1 lines, 24 notes)
B6 c2 d4 B4 |A8 G8 |A6 B2 A4 E4 |A12 z4 |B6 c2 d4 B4 |A8 G8 |A4 B4 A6 G2 |G12 z4 |
%W: B
% voice 1 (1 lines, 26 notes)
c4 B4 c4 d4 |e4 e4 B8 |d4 B4 A4 G4 |F12 z4 |B6 c2 d4 B4 |A8 G4 z4 |A4 B4 A6 G2 |G12 z4 |
%W:
% voice 1 (1 lines, 26 notes)
c4 B4 c4 d4 |e4 e4 B8 |d4 B4 A4 G4 |F12 z4 |B6 c2 d4 B4 |A8 G4 z4 |A4 B4 A6 G2 |G12 z4 |
